X:1
T:Mine, Still Mine
T:Joseph Lincoln Hall
T:Mine, Still Mine
T:Public Domain
T:Public Domain
C:Joseph Lincoln Hall
Z:Public Domain
%%score ( 1 2 ) ( 3 4 )
L:1/8
M:4/4
K:G
V:1 treble 
V:2 treble 
V:3 bass 
V:4 bass 
V:1
 D2 | D3 [DB] [DF]2 [DG]2 | [EA]2 [CE]4 F>E | (z2 C>C C2) [Ec]2 | D2 G2 G2 D2 | %5
w: 1.~Thro’|of joy or sor-|Je- sus still is|* * * mine;|* * * ev-|
w: 2.~Thro’|ly trib- u- la-|Je- sus still is|* * * mine;|* * * strength|
w: 3.~Tho’|some fleet- ing trea-|Je- sus still is|* * * mine;|* * * love|
w: 4.~My|herd goes be- fore|Je- sus still is|* * * mine;|* * * yond|
 D3 [DB] [DF]2 [DG]2 | [EA]2 [CE]4 F>E | (z2 C>C C2) [CA]2 | B,2 C2 B,2 ||"^Refrain" [Gd]2 | %10
w: to- mor- row, He|still be mine. *||||
w: so- la- tion, He|mine, still mine. My|* * * Sav-||eth|
w: all mea- sure, He|mine, still mine. *||||
w: His glo- ry! He|still be mine. *||||
 [Gd]3 [GB] [Fc]2 [GB]2 | [GB]2 [FA]4 [Ac]2 | [Ac]3 [Ac] [GB]2 [FA]2 | [GB]6 [Gd]2 | %14
w: ||||
w: nev- er; O how|His glo- ries|shine, I’ll sing it|out for-|
w: ||||
w: ||||
 [Gd]3 [GB] [Fc]2 [GB]2 | [EA]2 [CE]4 F>E || (z2 C>C C2) [CA]2 | B,2 C2 B,2 |] %18
w: ||||
w: ev- er, He is|mine, still mine. *|||
w: ||||
w: ||||
V:2
 D2 | D3 x5 | x8 | E6 x2 | B6 D2 | D3 x5 | x8 | D6 x2 | G6 || x2 | x8 | x8 | x8 | x8 | x8 | x8 || %16
w: scenes|row,||Thro’|’ry new|will|||||||||||
w: earth-|tion,||My|and con-|is||ior|fail-||||||||
w: lost,|sure,||With|be- yond|is|||||||||||
w: Shep-|me,||Be-|the vale,|will|||||||||||
 D6 x2 | G6 |] %18
w: ||
w: ||
w: ||
w: ||
V:3
 [G,B,]2 | [G,B,]3 [G,B,] [A,C]2 [G,B,]2 | [C,C]2 [C,G,]4 z2 | z2 [D,F,]>[D,F,] [D,F,]2 [D,F,]2 | %4
w: ~|~ ~ ~ ~|~ ~|Je- sus still ~|
 G,2 [G,D]2 [G,D]2 [G,B,]2 | [G,B,]3 [G,B,] [A,C]2 [G,B,]2 | [C,C]2 [C,G,]4 z2 | %7
w: ~ is mine; ~|~ ~ ~ ~|~ 1.~He|
 z2 [D,F,]>[D,F,] [D,F,]2 [D,F,]2 | G,2 E,2 D,2 || [G,B,]2 | [G,B,]3 [G,D] [A,D]2 [G,D]2 | %11
w: will still ~ ~|be mine. ~|~|~ ~ ~ ~|
 [D,D]2 [D,D]4 [D,D]2 | [D,D]3 [D,D] [D,D]2 [D,D]2 | [G,D]2 [G,D]2 [G,D]2 [G,B,]2 | %14
w: ~ ~ ~|~ ~ glo- ries|shine, ~ ~ ~|
 [G,B,]3 [G,D] [A,D]2 [G,D]2 | [C,C]2 [C,G,]4 z2 || z2 [D,F,]>[D,F,] [D,F,]2 [D,F,]2 | %17
w: ~ ~ ~ ~|He is|mine ~ ~ still|
 (G,2 E,2 D,2) |] %18
w: mine. * *|
V:4
 x2 | x8 | x8 | x8 | G,2 x6 | x8 | x8 | x8 | G,,6 || x2 | x8 | x8 | x8 | x8 | x8 | x8 || x8 | %17
w: ||||~||||~|||||||||
 G,,6 |] %18
w: |

